images/O_DTE_F.svg

<?xml version="1.0" encoding="UTF-8" standalone="no"?><!DOCTYPE svg PUBLIC "-//W3C//DTD SVG 1.1//EN" "http://www.w3.org/Graphics/SVG/1.1/DTD/svg11.dtd"><svg width="100%" height="100%" viewBox="0 0 48 48" version="1.1" xmlns="http://www.w3.org/2000/svg" xmlns:xlink="http://www.w3.org/1999/xlink" xml:space="preserve" xmlns:serif="http://www.serif.com/" style="fill-rule:evenodd;clip-rule:evenodd;stroke-linejoin:round;stroke-miterlimit:2;"><path d="M48,43l0,-29l-2,0l0,29c0,1.656 -1.344,3 -3,3l-38,0c-1.656,0 -3,-1.344 -3,-3l0,-38c0,-1.656 1.344,-3 3,-3l29,0l0,-2l-29,0c-2.76,0 -5,2.24 -5,5l0,38c0,2.76 2.24,5 5,5l38,0c2.76,0 5,-2.24 5,-5Zm0,-33l0,-10l-10,0l0,2l8,0l0,8l2,0Z" style="fill:#5d65a8;"/><g><path d="M35.851,28.284c0.592,0.464 1.121,1.006 1.572,1.614c0.812,1.092 1.348,2.364 1.563,3.707c0.048,0.302 -0.026,0.611 -0.206,0.858c-0.18,0.248 -0.45,0.414 -0.752,0.461c-0.043,0.007 -0.086,0.012 -0.128,0.014l-5.607,-0c0.298,-0.63 0.403,-1.339 0.292,-2.037l0,-0.002c-0.14,-0.877 -0.37,-1.733 -0.683,-2.557c1.535,-0.251 2.907,-0.992 3.949,-2.058Zm-5.162,-10.247c0.716,0.006 1.424,0.156 2.084,0.441c0.818,0.353 1.536,0.905 2.088,1.604c0.478,0.606 0.819,1.306 1.002,2.053c0.083,0.371 0.127,0.756 0.127,1.152c0,2.795 -2.189,5.083 -4.945,5.241c-0.256,-0.449 -0.54,-0.883 -0.85,-1.3c-0.756,-1.017 -1.654,-1.914 -2.664,-2.665c0.318,-0.541 0.58,-1.115 0.779,-1.715c0.469,-1.407 0.58,-2.909 0.324,-4.37l0,-0.001c0.63,-0.277 1.325,-0.433 2.055,-0.44Z" style="fill:#5d65a8;"/><circle cx="19.82" cy="20.063" r="7" style="fill:#5d65a8;"/><path d="M26.32,26.14c0.865,0.639 1.633,1.405 2.279,2.274c1.05,1.414 1.744,3.06 2.023,4.799c0.062,0.391 -0.034,0.79 -0.267,1.111c-0.232,0.32 -0.583,0.534 -0.973,0.596l-0.166,0.017l-18.769,-0c-0.063,-0.002 -0.127,-0.008 -0.19,-0.018c-0.193,-0.031 -0.379,-0.099 -0.546,-0.202c-0.167,-0.102 -0.312,-0.237 -0.427,-0.395c-0.115,-0.159 -0.197,-0.339 -0.243,-0.529c-0.046,-0.191 -0.053,-0.388 -0.022,-0.582c0.279,-1.738 0.973,-3.383 2.023,-4.797c0.646,-0.868 1.414,-1.634 2.279,-2.273c1.624,1.736 3.936,2.822 6.499,2.822c2.564,-0 4.875,-1.086 6.5,-2.823Zm-6.62,-13.076l0.048,-0.001l0.116,-0l0.055,0.001c0.914,0.013 1.819,0.205 2.662,0.57c1.059,0.458 1.988,1.171 2.702,2.077c0.715,0.905 1.193,1.974 1.392,3.111c0.199,1.136 0.113,2.304 -0.251,3.398c-0.365,1.095 -0.995,2.082 -1.836,2.872l0.066,0.032c-1.257,1.201 -2.96,1.939 -4.834,1.939c-1.873,-0 -3.576,-0.738 -4.832,-1.938l0.064,-0.031c-0.693,-0.65 -1.245,-1.436 -1.622,-2.308c-0.377,-0.872 -0.571,-1.812 -0.57,-2.763c0,-1.153 0.287,-2.289 0.834,-3.304c0.548,-1.015 1.339,-1.879 2.303,-2.512c0.964,-0.634 2.071,-1.018 3.22,-1.118c0.161,-0.014 0.322,-0.022 0.483,-0.025Z" style="fill:#5d65a8;"/></g></svg>

<?xml version="1.0" encoding="UTF-8" standalone="no"?>
<!DOCTYPE svg PUBLIC "-//W3C//DTD SVG 1.1//EN" "http://www.w3.org/Graphics/SVG/1.1/DTD/svg11.dtd">
<svg width="100%" height="100%" viewBox="0 0 48 48" version="1.1" xmlns="http://www.w3.org/2000/svg" xmlns:xlink="http://www.w3.org/1999/xlink" xml:space="preserve" xmlns:serif="http://www.serif.com/" style="fill-rule:evenodd;clip-rule:evenodd;stroke-linejoin:round;stroke-miterlimit:2;">
    <path d="M48,43L48,14L46,14L46,43C46,44.656 44.656,46 43,46L5,46C3.344,46 2,44.656 2,43L2,5C2,3.344 3.344,2 5,2L34,2L34,0L5,0C2.24,0 0,2.24 0,5L0,43C0,45.76 2.24,48 5,48L43,48C45.76,48 48,45.76 48,43ZM48,10L48,0L38,0L38,2L46,2L46,10L48,10Z" style="fill:rgb(87,97,178);"/>
    <g transform="matrix(1,0,0,1,7.10543e-15,-0.0282021)">
        <path d="M35.851,28.312C36.443,28.776 36.972,29.318 37.423,29.926C38.235,31.018 38.771,32.29 38.986,33.633C39.034,33.935 38.96,34.244 38.78,34.491C38.6,34.739 38.33,34.905 38.028,34.952C37.985,34.959 37.942,34.964 37.9,34.966L32.293,34.966C32.591,34.336 32.696,33.627 32.585,32.929C32.585,32.928 32.585,32.928 32.585,32.927C32.445,32.05 32.215,31.194 31.902,30.37C33.437,30.119 34.809,29.378 35.851,28.312ZM30.689,18.065C31.405,18.071 32.113,18.221 32.773,18.506C33.591,18.859 34.309,19.411 34.861,20.11C35.339,20.716 35.68,21.416 35.863,22.163C35.946,22.534 35.99,22.919 35.99,23.315C35.99,26.11 33.801,28.398 31.045,28.556C30.789,28.107 30.505,27.673 30.195,27.256C29.439,26.239 28.541,25.342 27.531,24.591C27.849,24.05 28.111,23.476 28.31,22.876C28.779,21.469 28.89,19.967 28.634,18.506L28.634,18.505C29.264,18.228 29.959,18.072 30.689,18.065Z" style="fill:rgb(87,97,178);"/>
        <g transform="matrix(1.16667,0,0,1.16667,-5.84667,-6.74243)">
            <circle cx="22" cy="23" r="6" style="fill:rgb(87,97,178);"/>
        </g>
        <path d="M26.32,26.168C27.185,26.807 27.953,27.573 28.599,28.442C29.649,29.856 30.343,31.502 30.622,33.241C30.684,33.632 30.588,34.031 30.355,34.352C30.123,34.672 29.772,34.886 29.382,34.948L29.216,34.965L10.447,34.965C10.384,34.963 10.32,34.957 10.257,34.947C10.064,34.916 9.878,34.848 9.711,34.745C9.544,34.643 9.399,34.508 9.284,34.35C9.169,34.191 9.087,34.011 9.041,33.821C8.995,33.63 8.988,33.433 9.019,33.239C9.298,31.501 9.992,29.856 11.042,28.442C11.688,27.574 12.456,26.808 13.321,26.169C14.945,27.905 17.257,28.991 19.82,28.991C22.384,28.991 24.695,27.905 26.32,26.168ZM19.7,13.092L19.748,13.091L19.762,13.091L19.814,13.091L19.864,13.091L19.919,13.092C20.833,13.105 21.738,13.297 22.581,13.662C23.64,14.12 24.569,14.833 25.283,15.739C25.998,16.644 26.476,17.713 26.675,18.85C26.874,19.986 26.788,21.154 26.424,22.248C26.059,23.343 25.429,24.33 24.588,25.12L24.654,25.152C23.397,26.353 21.694,27.091 19.82,27.091C17.947,27.091 16.244,26.353 14.988,25.153L15.052,25.122C14.359,24.472 13.807,23.686 13.43,22.814C13.053,21.942 12.859,21.002 12.86,20.051C12.86,18.898 13.147,17.762 13.694,16.747C14.242,15.732 15.033,14.868 15.997,14.235C16.961,13.601 18.068,13.217 19.217,13.117C19.378,13.103 19.539,13.095 19.7,13.092Z" style="fill:rgb(87,97,178);"/>
    </g>
</svg>
